!!!OTL: 132. Der bestrafte Faehnrich.
!!!ARE: Europa, Mitteleuropa, Deutschland, Bergisches Land; Kleve
!!!SCT: E0132
!!!TXL: @@DE
!!!YEM: Copyright 1995, estate of Helmut Schaffrath.
**kern	**text
*ICvox	*
*M2/4	*
*k[f#]	*
*G:	*
!LO:TX:a:t=Achrittmäßig.	!
!LO:TX:a:t=Mel. aus dem Bergiſchen u. Cleviſchen 1836. Erk I. 2. Nr. 63.	!
{8d	Es_mar-
=1	=1
(8d	-ſchier-
8g)	-ten
8g	drei
8g	Regi-
=2	=2
4g	-men-
8a}	-ter
{8a	wol
=3	=3
4b	ü-
8a	-ber
8a	den
=4	=4
4g	Rhein,
8r}	.
{8g	es_mar-
=5	=5
8f#	-ſchier-
8a	-ten
8a	drei
8a	Regi-
=6	=6
4a	-men-
8b}	-ter
{8dd	wol
=7	=7
4cc	ü-
8b	-ber
8b	den
=8	=8
4a}	Rhein,
{4dd	ein
=9	=9
8b	Re-
8b	-gi-
8b	-ment
8b	ʒu
=10	=10
(8bL	Fuß,
8dd	.
8ccJ)}	.
{8b	ein
=11	=11
(8.a	Re-
16g)	-gi-
(8f#	-ment
8g)	ʒu
=12	=12
4a	Pferd,
8r}	.
{16gL	und
16aJ	.
=13	=13
4b	auch
4b	ein
=14	=14
(8.dd	Re-
16cc	-gi-
8b)}	-ment
{8a	Dra-
=15	=15
(4b/	-go-
4a)	.
=16	=16
4g	-ner.
8r}	.
==	==
!!!AGN: erzaehlendes Volks - Lied, Schalk -, Schelmen - Lied, Vergewaltigung, Ballade ?
!!!ONB: ESAC (Essen Associative Code) Database: ERK1
!!!AMT: simple duple
!!!AIN: vox
!!!EED: Helmut Schaffrath
!!!EEV: 1.0
!!!GTL: Schalks- und Schlemenlieder (Liebesabenteuer und betrogene Liebe)
!!!URL-scan:
!!!ENC: Anna Maria Matuszewska
!!!EEV: 2024/03/12
*-	*-
